symbols/web/mode_comment/materialsymbolsoutlined/mode_comment_wght100grad200fill1_20px.svg

<svg xmlns="http://www.w3.org/2000/svg" height="20" width="20"><path d="m17.917 17.125-2.875-2.875H3.958q-.812 0-1.343-.531-.532-.531-.532-1.344V3.708q0-.812.532-1.343.531-.532 1.343-.532h12.084q.812 0 1.343.532.532.531.532 1.343Z"/></svg>

<svg xmlns="http://www.w3.org/2000/svg" height="20" width="20"><path d="M17.917 17.125 15.042 14.25H3.958Q3.146 14.25 2.615 13.719Q2.083 13.188 2.083 12.375V3.708Q2.083 2.896 2.615 2.365Q3.146 1.833 3.958 1.833H16.042Q16.854 1.833 17.385 2.365Q17.917 2.896 17.917 3.708Z"/></svg>
